X:886
T:McMahon's
T:The Banshee
S:Barde LP
Z:Nigel Gatherer
M:4/4
L:1/8
K:G
G3 D EDB,D | GFGB d2 Bd | e3 d BAGA | BAGE ED D2  |
G3 D EDB,D | GFGB d2 Bd | e3 d BAGA | BAGE ED D2 :|
a3 g efge  | dBBA B3  d | eB B/B/B eBgB | eBBA B3 z |
a3 g efge  | dBBA B3  d | e3 d BAGA | BAGE ED D2 :|
<end>
<start>
